X:3991
T:March of the Kings of Laois
T:Rory of the Hills
O:england
C:Rory O'Moore
R:march
M:6/8
K:Dmix
A2F A2D|A2F A2D|B2G A2F|G2F E>FG|
A2F A2D|A2F A2d|B2d A>dG|F>dF E2D|F>ED G>FE|
A3 A>GF|E>cG E>CE|G>cG E>CE|D>ED D>ED|D>ED D3:|
|:B2G d2G|B>AG d2G|A2d A2d|F2d A>dA|
B2d d>BA|G>FG E>FG|F>ED G>AB|A3 AGF|
E>cG E>CE|G>cG E>CE|D>ED D>ED|D>ED D3:|
This file contains 12 mazurkas (#1 - #12).
You can find more abc tune files at http://home1.swipnet.se/~w-11382/abc.htm
I've transcribed them as I have learnt them, which does not necessarily mean
that I play them that way nowadays. Many of the tunes include variations and
different versions. If there is a source (S:) or discography (D:) included the
version transcribed might still not be exactly as that source played the tune,
since I might have changed the tune around a bit when I learnt it.
The tunes were learnt from sessions, from friends or from recordings.
When I've included discography, it's often just a reference to what recordings
the tune appears on.
Last updated 30 August 1998.
(c) Copyright 1997-1998 Henrik Norbeck. This file:
- May be distributed freely (with restrictions below).
- May not be used for commercial purposes (such as printing a tune book to sell).
- This file (or parts of it) may not be made available on a web page for
download without permission from me.
- This copyright notice must be kept, except when e-mailing individual tunes.
- May be printed on paper for personal use.
- Questions? E-mail: henrik.norbeck@mailbox.swipnet.se
M:3/4
R:mazurka


